blockchains/elrond/assets/USDC-c76f1f/logo.svg

<svg fill="none" height="250" viewBox="0 0 250 250" width="250" xmlns="http://www.w3.org/2000/svg" xmlns:xlink="http://www.w3.org/1999/xlink"><clipPath id="a"><path d="m0 0h250v250h-250z"/></clipPath><mask id="b" height="251" maskUnits="userSpaceOnUse" width="250" x="0" y="0"><path d="m.00024414.00097656h249.99975586v250.00002344h-249.99975586z" fill="#fff"/></mask><g clip-path="url(#a)"><g mask="url(#b)"><path clip-rule="evenodd" d="m125 .00097656c69.037 0 125 55.96302344 125 125.00002344 0 69.031-55.963 125-125 125-69.0367 0-124.99975586-55.969-124.99975586-125 0-69.037 55.96305586-125.00002344 124.99975586-125.00002344z" fill="#2775ca" fill-rule="evenodd"/></g><g clip-rule="evenodd" fill="#fff" fill-rule="evenodd"><path d="m101.568 211.909c0 2.94-2.3024 4.611-5.1461 3.723-37.7941-12.057-65.1961-47.496-65.1961-89.311 0-41.8142 27.402-77.2545 65.1961-89.3114 2.8437-.8821 5.1461.7827 5.1461 3.7231v7.2585c0 1.9574-1.517 4.2613-3.3819 4.8991-29.902 10.9801-51.3225 39.706-51.3225 73.3807 0 33.675 21.4205 62.406 51.3225 73.381 1.8649.687 3.3819 2.94 3.3819 4.904z"/><path d="m132.793 184.898c0 2.159-1.764 3.924-3.92 3.924h-7.796c-2.156 0-3.92-1.765-3.92-3.924v-12.351c-17.06-2.302-25.3906-11.863-27.6463-24.852-.3935-2.209 1.3708-4.217 3.6264-4.217h8.9219c1.862 0 3.432 1.325 3.824 3.184 1.667 7.746 6.128 13.678 19.802 13.678 10.098 0 17.258-5.638 17.258-14.065 0-8.435-4.218-11.62-19.022-14.073-21.862-2.94-32.2043-9.559-32.2043-26.716 0-13.234 10.0013-23.5267 25.4903-25.734v-12.108c0-2.1577 1.765-3.9233 3.92-3.9233h7.796c2.156 0 3.92 1.7656 3.92 3.9233v12.4517c12.598 2.2585 20.588 9.4105 23.188 21.2723.488 2.259-1.276 4.363-3.579 4.363h-8.237c-1.764 0-3.234-1.178-3.772-2.892-2.206-7.5458-7.6-10.7802-16.964-10.7802-10.342 0-15.686 4.9986-15.686 12.0072 0 7.402 3.042 11.125 18.925 13.433 21.467 2.94 32.548 9.067 32.548 27.355 0 13.871-10.295 25.097-26.423 27.693v12.351z"/><path d="m153.579 215.633c-2.841.888-5.147-.783-5.147-3.723v-7.253c0-2.158 1.324-4.166 3.382-4.905 29.902-10.98 51.323-39.706 51.323-73.381 0-33.6743-21.421-62.4001-51.323-73.3803-1.862-.6875-3.382-2.9403-3.382-4.9048v-7.2528c0-2.9404 2.306-4.6549 5.147-3.7287 37.794 12.0639 65.196 47.5028 65.196 89.3166-.047 41.715-27.402 77.105-65.196 89.212z"/></g></g></svg>

<svg width="250" height="250" viewBox="0 0 250 250" fill="none" xmlns="http://www.w3.org/2000/svg">
<g clip-path="url(#clip0_7_447)">
<mask id="mask0_7_447" style="mask-type:alpha" maskUnits="userSpaceOnUse" x="0" y="0" width="250" height="251">
<path d="M0.000244141 0.000976562H250V250.001H0.000244141V0.000976562Z" fill="white"/>
</mask>
<g mask="url(#mask0_7_447)">
<path fill-rule="evenodd" clip-rule="evenodd" d="M125 0.000976562C194.037 0.000976562 250 55.964 250 125.001C250 194.032 194.037 250.001 125 250.001C55.9633 250.001 0.000244141 194.032 0.000244141 125.001C0.000244141 55.964 55.9633 0.000976562 125 0.000976562Z" fill="#2775CA"/>
</g>
<path fill-rule="evenodd" clip-rule="evenodd" d="M101.568 211.909C101.568 214.849 99.2656 216.52 96.4219 215.632C58.6278 203.575 31.2258 168.136 31.2258 126.321C31.2258 84.5068 58.6278 49.0665 96.4219 37.0096C99.2656 36.1275 101.568 37.7923 101.568 40.7327V47.9912C101.568 49.9486 100.051 52.2525 98.1861 52.8903C68.2841 63.8704 46.8636 92.5963 46.8636 126.271C46.8636 159.946 68.2841 188.677 98.1861 199.652C100.051 200.339 101.568 202.592 101.568 204.556V211.909Z" fill="white"/>
<path fill-rule="evenodd" clip-rule="evenodd" d="M132.793 184.898C132.793 187.057 131.029 188.822 128.873 188.822H121.077C118.921 188.822 117.157 187.057 117.157 184.898V172.547C100.097 170.245 91.7664 160.684 89.5107 147.695C89.1172 145.486 90.8815 143.478 93.1371 143.478H102.059C103.921 143.478 105.491 144.803 105.883 146.662C107.55 154.408 112.011 160.34 125.685 160.34C135.783 160.34 142.943 154.702 142.943 146.275C142.943 137.84 138.725 134.655 123.921 132.202C102.059 129.262 91.7167 122.643 91.7167 105.486C91.7167 92.252 101.718 81.9593 117.207 79.752V67.644C117.207 65.4863 118.972 63.7207 121.127 63.7207H128.923C131.079 63.7207 132.843 65.4863 132.843 67.644V80.0957C145.441 82.3542 153.431 89.5062 156.031 101.368C156.519 103.627 154.755 105.731 152.452 105.731H144.215C142.451 105.731 140.981 104.553 140.443 102.839C138.237 95.2932 132.843 92.0588 123.479 92.0588C113.137 92.0588 107.793 97.0574 107.793 104.066C107.793 111.468 110.835 115.191 126.718 117.499C148.185 120.439 159.266 126.566 159.266 144.854C159.266 158.725 148.971 169.951 132.843 172.547V184.898H132.793Z" fill="white"/>
<path fill-rule="evenodd" clip-rule="evenodd" d="M153.579 215.633C150.738 216.521 148.432 214.85 148.432 211.91V204.657C148.432 202.499 149.756 200.491 151.814 199.752C181.716 188.772 203.137 160.046 203.137 126.371C203.137 92.6967 181.716 63.9709 151.814 52.9907C149.952 52.3032 148.432 50.0504 148.432 48.0859V40.8331C148.432 37.8927 150.738 36.1782 153.579 37.1044C191.373 49.1683 218.775 84.6072 218.775 126.421C218.728 168.136 191.373 203.526 153.579 215.633Z" fill="white"/>
</g>
<defs>
<clipPath id="clip0_7_447">
<rect width="250" height="250" fill="white"/>
</clipPath>
</defs>
</svg>
